X:15773
T:Southwork Granadears Trumpet. JWDM.42
M:2/2
L:1/4
S:J.Winder MS,Wyresdale,Lancs.,1789
R:March
Z:vmp.Taz Tarry
K:G
"*"A|d2e2|fdd a/-g/|fddA|dAF E/-D/|d2e2|fdd a/g/|f/g/f/g/g>f|f/-g/a3:||!
:c/d/|e2f2|eccA|d/e/d/e/ e2|f3a/g/|fa ea|dA d/e/d/e/|fg/f/e>d|d3:||
%Try in key of D.
